icons/1_Primary/Ubisoft.svg

<svg xmlns="http://www.w3.org/2000/svg" width="1024" height="1024" fill="none">
   <g clip-path="url(#a)">
      <path fill="#56595B" d="M512 1024c282.77 0 512-229.23 512-512S794.77 0 512 0 0 229.23 0 512s229.23 512 512 512Z"/>
      <path fill="#fff" d="M758.6 511.8C753.1 249.5 404.3 151.7 270 397.5c6 4.4 14.1 10.2 20.1 14.3-9.9 20.8-16.9 42.8-20.8 65.4-2.6 14.6-3.9 29.4-3.9 44.2 0 136 110.5 246.5 246.8 246.5s246.5-110.3 246.5-246.5v-9.6h-.1Zm-432.4 43.9c-3.2 26.6-1.2 34.9-1.2 38.2l-6 2.1c-2.3-4.4-7.9-19.9-10.4-40.7-6.5-79.3 47.6-150.8 130.2-164.2 75.6-11.1 148 35.8 164.9 101.5l-6 2.1c-1.9-1.9-4.9-7.2-16.4-18.7-91.4-91.4-234.8-49.6-255.1 79.7Zm234.7 44.4c-12.6 18.1-33.2 28.9-55.3 28.9-37.1 0-67.3-30-67.3-67.1v-.2c.1-35.2 27.3-64.5 62.4-67.1 21.7-.9 42.1 10.9 51.6 29.8 10.4 20.9 6.6 46.1-9.7 62.9 6.3 4.5 12.3 8.6 18.3 12.8Zm140.4 2.5c-35.6 80.7-108.9 123-187.1 121.9-150.1-7.4-193.8-180.6-93.4-243l4.4 4.4c-1.6 2.3-7.6 6.9-16.9 25.2-10.9 22.2-14.3 44.4-12.9 58.3 7.9 121 177.4 145.7 235.6 25.9 74.2-164-122.8-330.7-297.6-203.3l-3.9-3.9c46-72.1 136-104.3 221.8-82.8 131 33 201.6 169.7 150 297.3Z"/>
   </g>
   <defs>
      <clipPath id="a">
         <path fill="#fff" d="M0 0h1024v1024H0z"/>
      </clipPath>
   </defs>
</svg>

<svg width="1024" height="1024" viewBox="0 0 1024 1024" fill="none" xmlns="http://www.w3.org/2000/svg">
<g clip-path="url(#clip0_2_3774)">
<path d="M512 1024C794.77 1024 1024 794.77 1024 512C1024 229.23 794.77 0 512 0C229.23 0 0 229.23 0 512C0 794.77 229.23 1024 512 1024Z" fill="#56595B"/>
<path d="M758.6 511.8C753.1 249.5 404.3 151.7 270 397.5C276 401.9 284.1 407.7 290.1 411.8C280.2 432.6 273.2 454.6 269.3 477.2C266.7 491.8 265.4 506.6 265.4 521.4C265.4 657.4 375.9 767.9 512.2 767.9C648.5 767.9 758.7 657.6 758.7 521.4V511.8H758.6ZM326.2 555.7C323 582.3 325 590.6 325 593.9L319 596C316.7 591.6 311.1 576.1 308.6 555.3C302.1 476 356.2 404.5 438.8 391.1C514.4 380 586.8 426.9 603.7 492.6L597.7 494.7C595.8 492.8 592.8 487.5 581.3 476C489.9 384.6 346.5 426.4 326.2 555.7ZM560.9 600.1C548.3 618.2 527.7 629 505.6 629C468.5 629 438.3 599 438.3 561.9V561.7C438.4 526.5 465.6 497.2 500.7 494.6C522.4 493.7 542.8 505.5 552.3 524.4C562.7 545.3 558.9 570.5 542.6 587.3C548.9 591.8 554.9 595.9 560.9 600.1ZM701.3 602.6C665.7 683.3 592.4 725.6 514.2 724.5C364.1 717.1 320.4 543.9 420.8 481.5L425.2 485.9C423.6 488.2 417.6 492.8 408.3 511.1C397.4 533.3 394 555.5 395.4 569.4C403.3 690.4 572.8 715.1 631 595.3C705.2 431.3 508.2 264.6 333.4 392L329.5 388.1C375.5 316 465.5 283.8 551.3 305.3C682.3 338.3 752.9 475 701.3 602.6Z" fill="white"/>
</g>
<defs>
<clipPath id="clip0_2_3774">
<rect width="1024" height="1024" fill="white"/>
</clipPath>
</defs>
</svg>
